X:1
T:Title
L:1/8
M:4/4
K:Bb
V:1 treble nm="Grand Piano"
V:1
 z4 z[Q:1/4=100] FBA | A2 F2 A2 G2 | E4- EEAG | G2 E2 G2 F2 | D4- DDDE | F2 FD E2 EF | %6
 G4- GA/A/ GF | B2 FG FEDC |[M:2/4] B,4 | z D DE |[M:4/4] F2 F2 E2 D2 | E4- ECCD | E2 E2 F2 E2 | %13
 D4- DDDE | F3 D E2 EF | G4- GAGF | B2 FG FEDC | B,6 z2 |] %18

